X:739
T: 1st August
Z: Piano Box Version by Martin Fleischmann
H: Created 2015-05-23 /  Last Modified 2015-05-25
R: reel
M: 4/4
L: 1/8
K: Edor
|:D~E3 GDEG|A~B3 BAGB|(3BBA AB AGEA |BedB AGEA|
G~E3 GDEG|A~B3 BAGB|(3BBA AB AGED|1 EGAE GAEG:|2 EGAG ABde||
|:fgag fedB|e3 d BAGD| E~G3 A2 GA|~B3 d BAGD|
|E~G3 A~G3|Be dB AGEG|DEGB A^GAB|1 G2 GF GB de:|2 G2 GF GBFG||

